wire-ios/Wire-iOS/Resources/Images/Images.xcassets/Contacts Filled.imageset/Contacts Filled.svg

<svg fill="none" height="22" viewBox="0 0 16 16" width="22" xmlns="http://www.w3.org/2000/svg"><g fill="#34373d"><path clip-rule="evenodd" d="m11.0922 9.75h.3335c1.4217 0 2.5743 1.1782 2.5743 2.625v1.1112c-1.7912.9665-3.833 1.5138-6 1.5138-2.16701 0-4.20881-.5473-6-1.5138v-1.1112c0-1.4497 1.15061-2.625 2.5743-2.625h.33348c.90304.5555 1.96108.875 3.09222.875s2.1892-.3195 3.0922-.875zm-3.09221-1.75c1.89355 0 3.42861-1.567 3.42861-3.5s-1.53506-3.5-3.42861-3.5-3.42857 1.567-3.42857 3.5 1.53502 3.5 3.42857 3.5z" fill-rule="evenodd"/><path d="m11.0922 9.75v-.5c-.0925 0-.1832.02566-.2619.07412zm2.9078 3.7362.2374.44c.1618-.0873.2626-.2563.2626-.44zm-12 0h-.5c0 .1837.10082.3527.26256.44zm2.90778-3.7362.26197-.42588c-.07879-.04846-.16947-.07412-.26197-.07412zm3.09221-2.25c-.27614 0-.5.22386-.5.5s.22386.5.5.5zm3.09221 2.75h.3335v-1h-.3335zm.3335 0c1.1361 0 2.0743.9447 2.0743 2.125h1c0-1.7133-1.3669-3.125-3.0743-3.125zm2.0743 2.125v1.1112h1v-1.1112zm.2626.6711c-1.7204.9284-3.6809 1.4539-5.7626 1.4539v1c2.2523 0 4.3754-.569 6.2374-1.5738zm-5.7626 1.4539c-2.08174 0-4.0422-.5255-5.76256-1.4539l-.47488.8801c1.86201 1.0048 3.98515 1.5738 6.23744 1.5738zm-5.5-1.0138v-1.1112h-1v1.1112zm0-1.1112c0-1.1831.93614-2.125 2.0743-2.125v-1c-1.70922 0-3.0743 1.4086-3.0743 3.125zm2.0743-2.125h.33348v-1h-.33348zm.07152-.0741c.97913.6023 2.12743.9491 3.35418.9491v-1c-1.03554 0-2.00331-.29222-2.83025-.80088zm3.35418.9491c1.22675 0 2.375-.3468 3.3542-.9491l-.5239-.85178c-.827.50866-1.79476.80088-2.8303.80088zm-.00001-2.625c2.17941 0 3.92861-1.80063 3.92861-4h-1c0 1.66662-1.32087 3-2.92861 3zm3.92861-4c0-2.19937-1.7492-4-3.92861-4v1c1.60774 0 2.92861 1.33338 2.92861 3zm-3.92861-4c-2.17936 0-3.92857 1.80063-3.92857 4h1c0-1.66662 1.32084-3 2.92857-3zm-3.92857 4c0 2.19937 1.74921 4 3.92857 4v-1c-1.60773 0-2.92857-1.33338-2.92857-3z"/></g></svg>

<svg width="16" height="16" viewBox="0 0 16 16" fill="none" xmlns="http://www.w3.org/2000/svg">
<path fill-rule="evenodd" clip-rule="evenodd" d="M11.0922 9.75H11.4257C12.8474 9.75 14 10.9282 14 12.375V13.4862C12.2088 14.4527 10.167 15 8 15C5.83299 15 3.79119 14.4527 2 13.4862V12.375C2 10.9253 3.15061 9.75 4.5743 9.75H4.90778C5.81082 10.3055 6.86886 10.625 8 10.625C9.13114 10.625 10.1892 10.3055 11.0922 9.75ZM7.99999 8C9.89354 8 11.4286 6.433 11.4286 4.5C11.4286 2.567 9.89354 1 7.99999 1C6.10644 1 4.57142 2.567 4.57142 4.5C4.57142 6.433 6.10644 8 7.99999 8Z" fill="#34373D"/>
<path d="M11.0922 9.75V9.25C10.9997 9.25 10.909 9.27566 10.8303 9.32412L11.0922 9.75ZM14 13.4862L14.2374 13.9262C14.3992 13.8389 14.5 13.6699 14.5 13.4862H14ZM2 13.4862H1.5C1.5 13.6699 1.60082 13.8389 1.76256 13.9262L2 13.4862ZM4.90778 9.75L5.16975 9.32412C5.09096 9.27566 5.00028 9.25 4.90778 9.25V9.75ZM7.99999 7.5C7.72385 7.5 7.49999 7.72386 7.49999 8C7.49999 8.27614 7.72385 8.5 7.99999 8.5V7.5ZM11.0922 10.25H11.4257V9.25H11.0922V10.25ZM11.4257 10.25C12.5618 10.25 13.5 11.1947 13.5 12.375H14.5C14.5 10.6617 13.1331 9.25 11.4257 9.25V10.25ZM13.5 12.375V13.4862H14.5V12.375H13.5ZM13.7626 13.0461C12.0422 13.9745 10.0817 14.5 8 14.5V15.5C10.2523 15.5 12.3754 14.931 14.2374 13.9262L13.7626 13.0461ZM8 14.5C5.91826 14.5 3.9578 13.9745 2.23744 13.0461L1.76256 13.9262C3.62457 14.931 5.74771 15.5 8 15.5V14.5ZM2.5 13.4862V12.375H1.5V13.4862H2.5ZM2.5 12.375C2.5 11.1919 3.43614 10.25 4.5743 10.25V9.25C2.86508 9.25 1.5 10.6586 1.5 12.375H2.5ZM4.5743 10.25H4.90778V9.25H4.5743V10.25ZM4.64582 10.1759C5.62495 10.7782 6.77325 11.125 8 11.125V10.125C6.96446 10.125 5.99669 9.83278 5.16975 9.32412L4.64582 10.1759ZM8 11.125C9.22675 11.125 10.375 10.7782 11.3542 10.1759L10.8303 9.32412C10.0033 9.83278 9.03554 10.125 8 10.125V11.125ZM7.99999 8.5C10.1794 8.5 11.9286 6.69937 11.9286 4.5H10.9286C10.9286 6.16662 9.60773 7.5 7.99999 7.5V8.5ZM11.9286 4.5C11.9286 2.30063 10.1794 0.5 7.99999 0.5V1.5C9.60773 1.5 10.9286 2.83338 10.9286 4.5H11.9286ZM7.99999 0.5C5.82063 0.5 4.07142 2.30063 4.07142 4.5H5.07142C5.07142 2.83338 6.39226 1.5 7.99999 1.5V0.5ZM4.07142 4.5C4.07142 6.69937 5.82063 8.5 7.99999 8.5V7.5C6.39226 7.5 5.07142 6.16662 5.07142 4.5H4.07142Z" fill="#34373D"/>
</svg>
